Adwaita++-Dark/actions/22/view-list-compact.svg

<svg xmlns="http://www.w3.org/2000/svg" width="22" height="22" viewBox="0 0 22 22">
 <defs>
  <style id="current-color-scheme" type="text/css">
   .ColorScheme-Text { color:#E6DDFF; } .ColorScheme-Highlight { color:#4285f4; }
  </style>
 </defs>
 <path style="fill:currentColor" class="ColorScheme-Text" d="M 2 4.0039062 L 2 6.0039062 L 4 6.0039062 L 4 4.0039062 L 2 4.0039062 z M 5 4.0039062 L 5 6.0039062 L 14 6.0039062 L 14 4.0039062 L 5 4.0039062 z M 2 7.0039062 L 2 9.0039062 L 4 9.0039062 L 4 7.0039062 L 2 7.0039062 z M 5 7.0039062 L 5 9.0039062 L 14 9.0039062 L 14 7.0039062 L 5 7.0039062 z M 2 10.003906 L 2 12.003906 L 4 12.003906 L 4 10.003906 L 2 10.003906 z M 5 10.003906 L 5 12.003906 L 14 12.003906 L 14 10.003906 L 5 10.003906 z" transform="translate(3 3)"/>
</svg>

<svg height="22" viewBox="0 0 22 22" width="22" xmlns="http://www.w3.org/2000/svg">
  <path d="m2 4.0039062v2h2v-2zm3 0v2h9v-2zm-3 3v2h2v-2zm3 0v2h9v-2zm-3 2.9999998v2h2v-2zm3 0v2h9v-2z" fill="#e6ddff" transform="translate(3 3)"/>
</svg>
